images/3233471.svg

<?xml version="1.0" encoding="UTF-8"?>
<svg xmlns="http://www.w3.org/2000/svg" xmlns:xlink="http://www.w3.org/1999/xlink" width="300pt" height="300pt" viewBox="0 0 300 300" version="1.1">
<defs>
<g>
<symbol overflow="visible" id="glyph0-0">
<path style="stroke:none;" d="M 0.453125 1.59375 L 0.453125 -6.34375 L 4.953125 -6.34375 L 4.953125 1.59375 Z M 0.953125 1.09375 L 4.453125 1.09375 L 4.453125 -5.84375 L 0.953125 -5.84375 Z M 0.953125 1.09375 "/>
</symbol>
<symbol overflow="visible" id="glyph0-1">
<path style="stroke:none;" d="M 0.890625 -6.5625 L 2.078125 -6.5625 L 4.984375 -1.078125 L 4.984375 -6.5625 L 5.84375 -6.5625 L 5.84375 0 L 4.65625 0 L 1.75 -5.484375 L 1.75 0 L 0.890625 0 Z M 0.890625 -6.5625 "/>
</symbol>
<symbol overflow="visible" id="glyph0-2">
<path style="stroke:none;" d="M 3.546875 -5.953125 C 2.898438 -5.953125 2.382812 -5.710938 2 -5.234375 C 1.625 -4.753906 1.4375 -4.101562 1.4375 -3.28125 C 1.4375 -2.445312 1.625 -1.789062 2 -1.3125 C 2.382812 -0.832031 2.898438 -0.59375 3.546875 -0.59375 C 4.191406 -0.59375 4.703125 -0.832031 5.078125 -1.3125 C 5.453125 -1.789062 5.640625 -2.445312 5.640625 -3.28125 C 5.640625 -4.101562 5.453125 -4.753906 5.078125 -5.234375 C 4.703125 -5.710938 4.191406 -5.953125 3.546875 -5.953125 Z M 3.546875 -6.6875 C 4.460938 -6.6875 5.195312 -6.375 5.75 -5.75 C 6.300781 -5.132812 6.578125 -4.3125 6.578125 -3.28125 C 6.578125 -2.238281 6.300781 -1.410156 5.75 -0.796875 C 5.195312 -0.179688 4.460938 0.125 3.546875 0.125 C 2.617188 0.125 1.878906 -0.179688 1.328125 -0.796875 C 0.773438 -1.410156 0.5 -2.238281 0.5 -3.28125 C 0.5 -4.3125 0.773438 -5.132812 1.328125 -5.75 C 1.878906 -6.375 2.617188 -6.6875 3.546875 -6.6875 Z M 3.546875 -6.6875 "/>
</symbol>
<symbol overflow="visible" id="glyph0-3">
<path style="stroke:none;" d="M 0.890625 -6.5625 L 1.765625 -6.5625 L 1.765625 -3.875 L 5 -3.875 L 5 -6.5625 L 5.890625 -6.5625 L 5.890625 0 L 5 0 L 5 -3.125 L 1.765625 -3.125 L 1.765625 0 L 0.890625 0 Z M 0.890625 -6.5625 "/>
</symbol>
</g>
</defs>
<g id="surface30697">
<rect x="0" y="0" width="300" height="300" style="fill:rgb(100%,100%,100%);fill-opacity:1;stroke:none;"/>
<path style="fill:none;stroke-width:1.2;stroke-linecap:butt;stroke-linejoin:miter;stroke:rgb(0%,0%,0%);stroke-opacity:1;stroke-miterlimit:10;" d="M 136.839844 170.859375 L 116.894531 175.417969 "/>
<path style="fill:none;stroke-width:1.2;stroke-linecap:butt;stroke-linejoin:miter;stroke:rgb(0%,0%,0%);stroke-opacity:1;stroke-miterlimit:10;" d="M 142.859375 151.308594 L 136.839844 170.859375 "/>
<path style="fill:none;stroke-width:1.2;stroke-linecap:butt;stroke-linejoin:miter;stroke:rgb(0%,0%,0%);stroke-opacity:1;stroke-miterlimit:10;" d="M 116.894531 175.417969 L 109.9375 167.921875 "/>
<path style="fill:none;stroke-width:1.2;stroke-linecap:butt;stroke-linejoin:miter;stroke:rgb(0%,0%,100%);stroke-opacity:1;stroke-miterlimit:10;" d="M 109.9375 167.921875 L 102.976562 160.429688 "/>
<path style="fill:none;stroke-width:1.2;stroke-linecap:butt;stroke-linejoin:miter;stroke:rgb(0%,0%,100%);stroke-opacity:1;stroke-miterlimit:10;" d="M 102.976562 160.429688 L 105.984375 150.652344 "/>
<path style="fill:none;stroke-width:1.2;stroke-linecap:butt;stroke-linejoin:miter;stroke:rgb(0%,0%,0%);stroke-opacity:1;stroke-miterlimit:10;" d="M 105.984375 150.652344 L 108.996094 140.878906 "/>
<path style="fill:none;stroke-width:1.2;stroke-linecap:butt;stroke-linejoin:miter;stroke:rgb(0%,0%,100%);stroke-opacity:1;stroke-miterlimit:10;" d="M 102.976562 160.429688 L 93.003906 162.710938 "/>
<path style="fill:none;stroke-width:1.2;stroke-linecap:butt;stroke-linejoin:miter;stroke:rgb(0%,0%,0%);stroke-opacity:1;stroke-miterlimit:10;" d="M 93.003906 162.710938 L 83.035156 164.988281 "/>
<path style=" stroke:none;fill-rule:nonzero;fill:rgb(100%,100%,100%);fill-opacity:1;" d="M 99.976562 154.929688 L 106.976562 154.929688 L 106.976562 165.929688 L 99.976562 165.929688 Z M 99.976562 154.929688 "/>
<g style="fill:rgb(0%,0%,100%);fill-opacity:1;">
  <use xlink:href="#glyph0-1" x="99.976562" y="163.592773"/>
</g>
<path style="fill:none;stroke-width:1.2;stroke-linecap:butt;stroke-linejoin:miter;stroke:rgb(0%,0%,0%);stroke-opacity:1;stroke-miterlimit:10;" d="M 108.996094 140.878906 L 128.9375 136.316406 "/>
<path style="fill:none;stroke-width:1.2;stroke-linecap:butt;stroke-linejoin:miter;stroke:rgb(0%,0%,0%);stroke-opacity:1;stroke-miterlimit:10;" d="M 128.9375 136.316406 L 142.859375 151.308594 "/>
<path style="fill:none;stroke-width:1.2;stroke-linecap:butt;stroke-linejoin:miter;stroke:rgb(0%,0%,0%);stroke-opacity:1;stroke-miterlimit:10;" d="M 142.859375 151.308594 L 160.183594 162.183594 "/>
<path style="fill:none;stroke-width:1.2;stroke-linecap:butt;stroke-linejoin:miter;stroke:rgb(0%,0%,0%);stroke-opacity:1;stroke-miterlimit:10;" d="M 153.734375 133.980469 L 142.859375 151.308594 "/>
<path style="fill:none;stroke-width:1.2;stroke-linecap:butt;stroke-linejoin:miter;stroke:rgb(0%,0%,0%);stroke-opacity:1;stroke-miterlimit:10;" d="M 160.183594 162.183594 L 165.625 153.519531 "/>
<path style="fill:none;stroke-width:1.2;stroke-linecap:butt;stroke-linejoin:miter;stroke:rgb(0%,0%,100%);stroke-opacity:1;stroke-miterlimit:10;" d="M 165.625 153.519531 L 171.0625 144.855469 "/>
<path style="fill:none;stroke-width:1.2;stroke-linecap:butt;stroke-linejoin:miter;stroke:rgb(0%,0%,100%);stroke-opacity:1;stroke-miterlimit:10;" d="M 171.0625 144.855469 L 162.398438 139.417969 "/>
<path style="fill:none;stroke-width:1.2;stroke-linecap:butt;stroke-linejoin:miter;stroke:rgb(0%,0%,0%);stroke-opacity:1;stroke-miterlimit:10;" d="M 162.398438 139.417969 L 153.734375 133.980469 "/>
<path style="fill:none;stroke-width:1.2;stroke-linecap:butt;stroke-linejoin:miter;stroke:rgb(0%,0%,100%);stroke-opacity:1;stroke-miterlimit:10;" d="M 171.0625 144.855469 L 181.03125 142.578125 "/>
<path style="fill:none;stroke-width:1.2;stroke-linecap:butt;stroke-linejoin:miter;stroke:rgb(0%,0%,0%);stroke-opacity:1;stroke-miterlimit:10;" d="M 181.03125 142.578125 L 191.003906 140.296875 "/>
<path style=" stroke:none;fill-rule:nonzero;fill:rgb(100%,100%,100%);fill-opacity:1;" d="M 168.0625 139.355469 L 175.0625 139.355469 L 175.0625 150.355469 L 168.0625 150.355469 Z M 168.0625 139.355469 "/>
<g style="fill:rgb(0%,0%,100%);fill-opacity:1;">
  <use xlink:href="#glyph0-1" x="168.0625" y="148.018555"/>
</g>
<path style="fill:none;stroke-width:1.2;stroke-linecap:butt;stroke-linejoin:miter;stroke:rgb(0%,0%,0%);stroke-opacity:1;stroke-miterlimit:10;" d="M 193.304688 141.003906 L 196.3125 131.230469 "/>
<path style="fill:none;stroke-width:1.2;stroke-linecap:butt;stroke-linejoin:miter;stroke:rgb(100%,0%,0%);stroke-opacity:1;stroke-miterlimit:10;" d="M 196.3125 131.230469 L 199.324219 121.453125 "/>
<path style="fill:none;stroke-width:1.2;stroke-linecap:butt;stroke-linejoin:miter;stroke:rgb(0%,0%,0%);stroke-opacity:1;stroke-miterlimit:10;" d="M 188.703125 139.589844 L 191.714844 129.8125 "/>
<path style="fill:none;stroke-width:1.2;stroke-linecap:butt;stroke-linejoin:miter;stroke:rgb(100%,0%,0%);stroke-opacity:1;stroke-miterlimit:10;" d="M 191.714844 129.8125 L 194.722656 120.039062 "/>
<path style="fill:none;stroke-width:1.2;stroke-linecap:butt;stroke-linejoin:miter;stroke:rgb(0%,0%,0%);stroke-opacity:1;stroke-miterlimit:10;" d="M 191.003906 140.296875 L 197.964844 147.792969 "/>
<path style="fill:none;stroke-width:1.2;stroke-linecap:butt;stroke-linejoin:miter;stroke:rgb(0%,0%,100%);stroke-opacity:1;stroke-miterlimit:10;" d="M 197.964844 147.792969 L 204.925781 155.285156 "/>
<path style=" stroke:none;fill-rule:nonzero;fill:rgb(100%,100%,100%);fill-opacity:1;" d="M 193.023438 115.246094 L 201.023438 115.246094 L 201.023438 126.246094 L 193.023438 126.246094 Z M 193.023438 115.246094 "/>
<g style="fill:rgb(100%,0%,0%);fill-opacity:1;">
  <use xlink:href="#glyph0-2" x="193.023438" y="123.90918"/>
</g>
<path style="fill:none;stroke-width:1.2;stroke-linecap:butt;stroke-linejoin:miter;stroke:rgb(0%,0%,100%);stroke-opacity:1;stroke-miterlimit:10;" d="M 204.925781 155.285156 L 214.894531 153.003906 "/>
<path style="fill:none;stroke-width:1.2;stroke-linecap:butt;stroke-linejoin:miter;stroke:rgb(0%,0%,0%);stroke-opacity:1;stroke-miterlimit:10;" d="M 214.894531 153.003906 L 224.867188 150.726562 "/>
<path style=" stroke:none;fill-rule:nonzero;fill:rgb(100%,100%,100%);fill-opacity:1;" d="M 197.925781 149.785156 L 211.925781 149.785156 L 211.925781 160.785156 L 197.925781 160.785156 Z M 197.925781 149.785156 "/>
<g style="fill:rgb(0%,0%,100%);fill-opacity:1;">
  <use xlink:href="#glyph0-1" x="197.925781" y="158.448242"/>
  <use xlink:href="#glyph0-3" x="204.90332" y="158.448242"/>
</g>
<path style="fill:none;stroke-width:1.2;stroke-linecap:butt;stroke-linejoin:miter;stroke:rgb(0%,0%,0%);stroke-opacity:1;stroke-miterlimit:10;" d="M 224.867188 150.726562 L 238.785156 165.714844 "/>
<path style="fill:none;stroke-width:1.2;stroke-linecap:butt;stroke-linejoin:miter;stroke:rgb(0%,0%,0%);stroke-opacity:1;stroke-miterlimit:10;" d="M 229.785156 148.949219 L 240.921875 160.941406 "/>
<path style="fill:none;stroke-width:1.2;stroke-linecap:butt;stroke-linejoin:miter;stroke:rgb(0%,0%,0%);stroke-opacity:1;stroke-miterlimit:10;" d="M 230.886719 131.175781 L 224.867188 150.726562 "/>
<path style="fill:none;stroke-width:1.2;stroke-linecap:butt;stroke-linejoin:miter;stroke:rgb(0%,0%,0%);stroke-opacity:1;stroke-miterlimit:10;" d="M 238.785156 165.714844 L 258.730469 161.152344 "/>
<path style="fill:none;stroke-width:1.2;stroke-linecap:butt;stroke-linejoin:miter;stroke:rgb(0%,0%,0%);stroke-opacity:1;stroke-miterlimit:10;" d="M 258.730469 161.152344 L 264.75 141.601562 "/>
<path style="fill:none;stroke-width:1.2;stroke-linecap:butt;stroke-linejoin:miter;stroke:rgb(0%,0%,0%);stroke-opacity:1;stroke-miterlimit:10;" d="M 254.730469 157.78125 L 259.546875 142.140625 "/>
<path style="fill:none;stroke-width:1.2;stroke-linecap:butt;stroke-linejoin:miter;stroke:rgb(0%,0%,0%);stroke-opacity:1;stroke-miterlimit:10;" d="M 264.75 141.601562 L 250.828125 126.613281 "/>
<path style="fill:none;stroke-width:1.2;stroke-linecap:butt;stroke-linejoin:miter;stroke:rgb(0%,0%,0%);stroke-opacity:1;stroke-miterlimit:10;" d="M 250.828125 126.613281 L 230.886719 131.175781 "/>
<path style="fill:none;stroke-width:1.2;stroke-linecap:butt;stroke-linejoin:miter;stroke:rgb(0%,0%,0%);stroke-opacity:1;stroke-miterlimit:10;" d="M 249.90625 131.761719 L 233.953125 135.410156 "/>
<path style="fill:none;stroke-width:1.2;stroke-linecap:butt;stroke-linejoin:miter;stroke:rgb(0%,0%,0%);stroke-opacity:1;stroke-miterlimit:10;" d="M 80.734375 164.28125 L 77.722656 174.058594 "/>
<path style="fill:none;stroke-width:1.2;stroke-linecap:butt;stroke-linejoin:miter;stroke:rgb(100%,0%,0%);stroke-opacity:1;stroke-miterlimit:10;" d="M 77.722656 174.058594 L 74.710938 183.832031 "/>
<path style="fill:none;stroke-width:1.2;stroke-linecap:butt;stroke-linejoin:miter;stroke:rgb(0%,0%,0%);stroke-opacity:1;stroke-miterlimit:10;" d="M 85.332031 165.699219 L 82.324219 175.472656 "/>
<path style="fill:none;stroke-width:1.2;stroke-linecap:butt;stroke-linejoin:miter;stroke:rgb(100%,0%,0%);stroke-opacity:1;stroke-miterlimit:10;" d="M 82.324219 175.472656 L 79.3125 185.25 "/>
<path style="fill:none;stroke-width:1.2;stroke-linecap:butt;stroke-linejoin:miter;stroke:rgb(0%,0%,0%);stroke-opacity:1;stroke-miterlimit:10;" d="M 83.035156 164.988281 L 69.113281 150 "/>
<path style=" stroke:none;fill-rule:nonzero;fill:rgb(100%,100%,100%);fill-opacity:1;" d="M 69.011719 179.039062 L 77.011719 179.039062 L 77.011719 190.039062 L 69.011719 190.039062 Z M 69.011719 179.039062 "/>
<g style="fill:rgb(100%,0%,0%);fill-opacity:1;">
  <use xlink:href="#glyph0-2" x="69.011719" y="187.702148"/>
</g>
<path style="fill:none;stroke-width:1.2;stroke-linecap:butt;stroke-linejoin:miter;stroke:rgb(0%,0%,0%);stroke-opacity:1;stroke-miterlimit:10;" d="M 69.113281 150 L 75.132812 130.449219 "/>
<path style="fill:none;stroke-width:1.2;stroke-linecap:butt;stroke-linejoin:miter;stroke:rgb(0%,0%,0%);stroke-opacity:1;stroke-miterlimit:10;" d="M 65.113281 146.628906 L 69.929688 130.988281 "/>
<path style="fill:none;stroke-width:1.2;stroke-linecap:butt;stroke-linejoin:miter;stroke:rgb(0%,0%,0%);stroke-opacity:1;stroke-miterlimit:10;" d="M 49.171875 154.5625 L 69.113281 150 "/>
<path style="fill:none;stroke-width:1.2;stroke-linecap:butt;stroke-linejoin:miter;stroke:rgb(0%,0%,0%);stroke-opacity:1;stroke-miterlimit:10;" d="M 75.132812 130.449219 L 61.214844 115.460938 "/>
<path style="fill:none;stroke-width:1.2;stroke-linecap:butt;stroke-linejoin:miter;stroke:rgb(0%,0%,0%);stroke-opacity:1;stroke-miterlimit:10;" d="M 61.214844 115.460938 L 51.242188 117.738281 "/>
<path style="fill:none;stroke-width:1.2;stroke-linecap:butt;stroke-linejoin:miter;stroke:rgb(0%,0%,100%);stroke-opacity:1;stroke-miterlimit:10;" d="M 51.242188 117.738281 L 41.269531 120.019531 "/>
<path style="fill:none;stroke-width:1.2;stroke-linecap:butt;stroke-linejoin:miter;stroke:rgb(0%,0%,0%);stroke-opacity:1;stroke-miterlimit:10;" d="M 60.292969 120.609375 L 52.316406 122.433594 "/>
<path style="fill:none;stroke-width:1.2;stroke-linecap:butt;stroke-linejoin:miter;stroke:rgb(0%,0%,100%);stroke-opacity:1;stroke-miterlimit:10;" d="M 52.316406 122.433594 L 44.339844 124.257812 "/>
<path style="fill:none;stroke-width:1.2;stroke-linecap:butt;stroke-linejoin:miter;stroke:rgb(0%,0%,100%);stroke-opacity:1;stroke-miterlimit:10;" d="M 41.269531 120.019531 L 38.261719 129.796875 "/>
<path style="fill:none;stroke-width:1.2;stroke-linecap:butt;stroke-linejoin:miter;stroke:rgb(0%,0%,0%);stroke-opacity:1;stroke-miterlimit:10;" d="M 38.261719 129.796875 L 35.25 139.570312 "/>
<path style=" stroke:none;fill-rule:nonzero;fill:rgb(100%,100%,100%);fill-opacity:1;" d="M 38.269531 114.519531 L 45.269531 114.519531 L 45.269531 125.519531 L 38.269531 125.519531 Z M 38.269531 114.519531 "/>
<g style="fill:rgb(0%,0%,100%);fill-opacity:1;">
  <use xlink:href="#glyph0-1" x="38.269531" y="123.182617"/>
</g>
<path style="fill:none;stroke-width:1.2;stroke-linecap:butt;stroke-linejoin:miter;stroke:rgb(0%,0%,0%);stroke-opacity:1;stroke-miterlimit:10;" d="M 35.25 139.570312 L 49.171875 154.5625 "/>
<path style="fill:none;stroke-width:1.2;stroke-linecap:butt;stroke-linejoin:miter;stroke:rgb(0%,0%,0%);stroke-opacity:1;stroke-miterlimit:10;" d="M 40.167969 137.792969 L 51.304688 149.785156 "/>
</g>
</svg>

<svg xmlns="http://www.w3.org/2000/svg" xmlns:xlink="http://www.w3.org/1999/xlink" width="300pt" height="300pt" viewBox="0 0 300 300"><defs><symbol overflow="visible"><path d="M.453 1.594v-7.938h4.5v7.938zm.5-.5h3.5v-6.938h-3.5zm0 0"/></symbol><symbol overflow="visible" id="a"><path d="M.89-6.563H2.08l2.906 5.485v-5.484h.86V0H4.656L1.75-5.484V0H.89zm0 0"/></symbol><symbol overflow="visible" id="b"><path d="M3.547-5.953c-.65 0-1.164.242-1.547.72-.375.48-.563 1.13-.563 1.952 0 .835.188 1.49.563 1.967.383.48.898.72 1.547.72.644 0 1.156-.24 1.53-.72.376-.476.564-1.132.564-1.968 0-.822-.187-1.474-.562-1.954-.375-.477-.887-.72-1.53-.72zm0-.734c.914 0 1.648.312 2.203.937.55.617.828 1.438.828 2.47 0 1.042-.277 1.87-.828 2.483-.555.617-1.29.922-2.203.922-.93 0-1.668-.305-2.22-.922C.774-1.41.5-2.237.5-3.28c0-1.033.273-1.853.828-2.47.55-.625 1.29-.938 2.22-.938zm0 0"/></symbol><symbol overflow="visible" id="c"><path d="M.89-6.563h.876v2.688H5v-2.688h.89V0H5v-3.125H1.766V0H.89zm0 0"/></symbol></defs><g><path fill="#fff" d="M0 0h300v300H0z"/><path d="M136.84 170.86l-19.945 4.558M142.86 151.31l-6.02 19.55M116.895 175.418l-6.957-7.496" stroke-width="1.2" stroke="#000" stroke-miterlimit="10" fill="none"/><path d="M109.938 167.922l-6.96-7.492M102.977 160.43l3.007-9.778" stroke-width="1.2" stroke="#00f" stroke-miterlimit="10" fill="none"/><path d="M105.984 150.652l3.012-9.773" stroke-width="1.2" stroke="#000" stroke-miterlimit="10" fill="none"/><path d="M102.977 160.43l-9.973 2.28" stroke-width="1.2" stroke="#00f" stroke-miterlimit="10" fill="none"/><path d="M93.004 162.71l-9.97 2.278" stroke-width="1.2" stroke="#000" stroke-miterlimit="10" fill="none"/><path d="M99.977 154.93h7v11h-7zm0 0" fill="#fff"/><use xlink:href="#a" x="99.977" y="163.593" fill="#00f"/><path d="M108.996 140.88l19.942-4.564M128.938 136.316l13.92 14.993M142.86 151.31l17.324 10.874M153.734 133.98l-10.875 17.33M160.184 162.184l5.44-8.664" stroke-width="1.2" stroke="#000" stroke-miterlimit="10" fill="none"/><path d="M165.625 153.52l5.438-8.665M171.063 144.855l-8.665-5.437" stroke-width="1.2" stroke="#00f" stroke-miterlimit="10" fill="none"/><path d="M162.398 139.418l-8.664-5.438" stroke-width="1.2" stroke="#000" stroke-miterlimit="10" fill="none"/><path d="M171.063 144.855l9.968-2.277" stroke-width="1.2" stroke="#00f" stroke-miterlimit="10" fill="none"/><path d="M181.03 142.578l9.974-2.28" stroke-width="1.2" stroke="#000" stroke-miterlimit="10" fill="none"/><path d="M168.063 139.355h7v11h-7zm0 0" fill="#fff"/><use xlink:href="#a" x="168.063" y="148.019" fill="#00f"/><path d="M193.305 141.004l3.007-9.774" stroke-width="1.2" stroke="#000" stroke-miterlimit="10" fill="none"/><path d="M196.313 131.23l3.01-9.777" stroke-width="1.2" stroke="#f00" stroke-miterlimit="10" fill="none"/><path d="M188.703 139.59l3.012-9.778" stroke-width="1.2" stroke="#000" stroke-miterlimit="10" fill="none"/><path d="M191.715 129.813l3.008-9.774" stroke-width="1.2" stroke="#f00" stroke-miterlimit="10" fill="none"/><path d="M191.004 140.297l6.96 7.496" stroke-width="1.2" stroke="#000" stroke-miterlimit="10" fill="none"/><path d="M197.965 147.793l6.96 7.492" stroke-width="1.2" stroke="#00f" stroke-miterlimit="10" fill="none"/><path d="M193.023 115.246h8v11h-8zm0 0" fill="#fff"/><use xlink:href="#b" x="193.023" y="123.909" fill="#f00"/><path d="M204.926 155.285l9.97-2.28" stroke-width="1.2" stroke="#00f" stroke-miterlimit="10" fill="none"/><path d="M214.895 153.004l9.972-2.277" stroke-width="1.2" stroke="#000" stroke-miterlimit="10" fill="none"/><path d="M197.926 149.785h14v11h-14zm0 0" fill="#fff"/><g fill="#00f"><use xlink:href="#a" x="197.926" y="158.448"/><use xlink:href="#c" x="204.903" y="158.448"/></g><path d="M224.867 150.727l13.918 14.988M229.785 148.95l11.137 11.99M230.887 131.176l-6.02 19.55M238.785 165.715l19.945-4.563M258.73 161.152l6.02-19.55M254.73 157.78l4.817-15.64M264.75 141.602l-13.922-14.99M250.828 126.613l-19.94 4.563M249.906 131.762l-15.953 3.648M80.734 164.28l-3.01 9.78" stroke-width="1.2" stroke="#000" stroke-miterlimit="10" fill="none"/><path d="M77.723 174.06l-3.012 9.772" stroke-width="1.2" stroke="#f00" stroke-miterlimit="10" fill="none"/><path d="M85.332 165.7l-3.008 9.773" stroke-width="1.2" stroke="#000" stroke-miterlimit="10" fill="none"/><path d="M82.324 175.473l-3.01 9.777" stroke-width="1.2" stroke="#f00" stroke-miterlimit="10" fill="none"/><path d="M83.035 164.988L69.113 150" stroke-width="1.2" stroke="#000" stroke-miterlimit="10" fill="none"/><path d="M69.012 179.04h8v11h-8zm0 0" fill="#fff"/><use xlink:href="#b" x="69.012" y="187.702" fill="#f00"/><path d="M69.113 150l6.02-19.55M65.113 146.63l4.817-15.642M49.172 154.563L69.112 150M75.133 130.45l-13.918-14.99M61.215 115.46l-9.973 2.278" stroke-width="1.2" stroke="#000" stroke-miterlimit="10" fill="none"/><path d="M51.242 117.738l-9.972 2.282" stroke-width="1.2" stroke="#00f" stroke-miterlimit="10" fill="none"/><path d="M60.293 120.61l-7.977 1.824" stroke-width="1.2" stroke="#000" stroke-miterlimit="10" fill="none"/><path d="M52.316 122.434l-7.976 1.824M41.27 120.02l-3.008 9.777" stroke-width="1.2" stroke="#00f" stroke-miterlimit="10" fill="none"/><path d="M38.262 129.797l-3.012 9.773" stroke-width="1.2" stroke="#000" stroke-miterlimit="10" fill="none"/><path d="M38.27 114.52h7v11h-7zm0 0" fill="#fff"/><use xlink:href="#a" x="38.27" y="123.183" fill="#00f"/><path d="M35.25 139.57l13.922 14.993M40.168 137.793l11.137 11.992" stroke-width="1.2" stroke="#000" stroke-miterlimit="10" fill="none"/></g></svg>
